X: 1
T: Danse Breton
M: 4/4
L: 1/8
R: reel
K: Emin
E2B2 B2AB|c3B A2FG|A2A2 AB AG|FE FG G2F2|
E2B2 B2AB|c3B A2FG|A2A2 AB AG|FE FG E4:|
E2E2 F2G2| E2E2 F2G2|A2A2 AB AG|FE FG G2F2|
E2E2 F2G2| E2E2 F2G2|A2A2 AB AG|FE FG E4:|
